elements/app-hax/lib/assets/images/HAXLogoWhite.svg

<svg xmlns="http://www.w3.org/2000/svg" fill="none" width="390" height="391" viewBox="0 0 390 391"><path d="M146.727.07v145.386H.89V.07h145.837l-23.452 23.534H24.26v99.015h99.425l-.41-99.015M37.011 321.059h34.153l-.205-175.603H37.421l-.41 175.603Zm206.681 0H71.164v32.513h172.528v-32.513Zm0 69.331 23.042-23.37h99.63v-99.589h23.206V390.39H243.692Z" fill="#fff"/><path d="M389.57 267.431V244.84H243.692v145.55l23.206-23.206v-99.753h120.704M268.661 122.742V244.84h-23.247v-99.097h-98.687v-23.001h121.934Z" fill="#fff"/><path d="M146.727 145.743v99.097h96.965v22.591H123.644V143.078h22.468l.615 2.665ZM320.977 37.38h-174.25v33.456h174.25V37.38Zm31.98 34.112h-31.98v173.307h31.98V71.492Z" fill="#fff"/><path d="M170.712 180.142h-9.471v49.897h19.721v-19.475h29.971v19.475h19.106v-49.364h-18.86v19.967h-30.217v-20.5h9.676v-9.922h10.906v9.676h9.553v6.314l9.225-5.535v-10.004H210.4v-10.455h-29.52v10.086h-10.086l-.082 9.84ZM37.421 106.096H57.06V75.838h30.545v30.258h19.639V36.437H87.4V66.9H57.06V36.437H37.421v69.659Zm253.831 226.648h-9.594v19.516h19.762v-19.516h9.84v-10.086h10.619v9.963h9.717v19.639h20.008v-19.639h-9.963v-9.963h-10.537v-9.676h10.537v-10.783h8.979v-19.024h-18.901v19.844h-9.84v10.086h-10.742v-10.086h-9.84v-19.844h-18.901v18.901h8.979v11.48h9.922v9.348h-9.799l-.246 9.84Z" fill="#fff"/></svg>

<svg width="390" height="391" viewBox="0 0 390 391" fill="none" xmlns="http://www.w3.org/2000/svg">
<path d="M146.727 0.0700073V145.456H37.421H0.890015V0.0700073H146.727L123.275 23.604H24.26V122.619H123.685L123.275 23.604" fill="white"/>
<path d="M37.011 321.059H71.164L70.959 145.456H37.421L37.011 321.059Z" fill="white"/>
<path d="M243.692 321.059H71.164V353.572H243.692V321.059Z" fill="white"/>
<path d="M243.692 390.39L266.734 367.02H366.364V267.431H389.57V390.39H243.692Z" fill="white"/>
<path d="M389.57 267.431V244.84H267.923H243.692V390.39L266.898 367.184V267.431H387.602" fill="white"/>
<path d="M268.661 122.742V244.84H245.414V145.743H146.727V122.742H268.661Z" fill="white"/>
<path d="M146.727 145.743V244.84H243.692V267.431H123.644V145.743V143.078H146.112L146.727 145.743Z" fill="white"/>
<path d="M320.977 37.38H146.727V70.836H320.977V37.38Z" fill="white"/>
<path d="M352.957 71.492H320.977V244.799H352.957V71.492Z" fill="white"/>
<path d="M170.712 180.142H161.241V230.039H180.962V210.564H210.933V230.039H230.039V181.577V180.675H211.179V194V195.23V196.583V197.936V199.617V200.642H180.962V180.142H190.638V170.22H201.544V179.896H211.097V186.21L220.322 180.675V170.671H210.4V160.216H180.88V170.302H170.794L170.712 180.142Z" fill="white"/>
<path d="M37.421 106.096H57.06V75.838H87.605V106.096H107.244V36.437H87.4V66.9H57.06V36.437H37.421V106.096Z" fill="white"/>
<path d="M291.252 332.744H281.658V352.26H301.42V332.744H311.26V322.658H321.879V332.621H331.596V352.26H351.604V332.621H341.641V322.658H331.104V312.982H341.641V302.199H350.62V283.175H331.719V301.707V303.019H321.879V313.105H311.137V303.019H301.297V283.175H282.396V302.076H291.375V311.301V313.556H301.297V322.904H291.498L291.252 332.744Z" fill="white"/>
</svg>
